!!!COM: Bach, Johann Sebastian
!!!OPR: Die Kunst der Fuge
!!!XEN: The Art of Fugue
!!!OTL:
!!!OMV: 13
!!!SCT: BWV 1080
!!!SCA: Thematisch-systematisches Verzeichnis der musikalischen Werke Johann Sebastian Bach: Bach-Werke-Verzeichnis (Schmieder)
!!!YOR: Bach Gesellschaft Edition xxv,1
!!!EED: Frances Bennion
!!!ENC: Frances Bennion
!!!CDT: 1685/3//-1750/7/28/
!!!OCY: Deutschland
!!!YEC: Copyright (c) 1994, 2000 Center for Computer Assisted Research in the Humanities
!!!YEM: Rights to all derivative editions reserved.
!!!YEM: Refer to licensing agreement for further details.
!!!YEN: United States of America
**kern	**kern	**kern	**kern	**kern	**kern
*k[b-]	*k[b-]	*k[b-]	*k[b-]	*k[b-]	*k[b-]
*d:	*d:	*d:	*d:	*d:	*d:
*clefG	*clefG	*clefC	*clefG	*clefG	*clefC
*M2/2	*M2/2	*M2/2	*M2/2	*M2/2	*M2/2
=0-	=0-	=0-	=0-	=0-	=0-
2.r	2.r	2.r	2.r	2.r	2.r
4r	4a	4r	4dd	4r	4r
=1	=1	=1	=1	=1	=1
1r	4dd	1r	4a	1r	1r
.	3d	.	3aa	.	.
.	12e	.	12gg	.	.
.	12f	.	12ff	.	.
.	12e	.	12gg	.	.
.	12f	.	12ff	.	.
.	12g	.	12ee	.	.
=2	=2	=2	=2	=2	=2
1r	12f	1r	12ff	1r	1r
.	12g	.	12ee	.	.
.	12a	.	12dd	.	.
.	3g	.	3ee	.	.
.	12a	.	12dd	.	.
.	12b-	.	12cc#	.	.
.	12a	.	12dd	.	.
.	12b-	.	12cc#	.	.
.	12cc	.	12b	.	.
=3	=3	=3	=3	=3	=3
1r	12b-	1r	12cc#	1r	1r
.	12a	.	12dd	.	.
.	12g	.	12ee	.	.
.	3a	.	3dd	.	.
.	12g	.	12ee	.	.
.	12f	.	12ff	.	.
.	12g	.	12ee	.	.
.	12f	.	12ff	.	.
.	12e	.	12gg	.	.
=4	=4	=4	=4	=4	=4
1r	8.f	2.r	8.ff	2.r	1r
.	16a	.	16dd	.	.
.	8.dd	.	8.a	.	.
.	16a	.	16dd	.	.
.	8.f	.	8.ff	.	.
.	16e	.	16gg	.	.
.	8.f	4D	8.ff	4a	.
.	16g	.	16ee	.	.
=5	=5	=5	=5	=5	=5
1r	12a	4AA	12dd	4dd	1r
.	12e	.	12gg	.	.
.	12g	.	12ee	.	.
.	12f	3A	12ff	3d	.
.	12e	.	12gg	.	.
.	12d	.	12aa	.	.
.	4c#	.	4bb-	.	.
.	.	12G	.	12e	.
.	.	12F	.	12f	.
.	4b-	12G	4cc#	12e	.
.	.	12F	.	12f	.
.	.	12E	.	12g	.
=6	=6	=6	=6	=6	=6
1r	3a	12F	3dd	12f	1r
.	.	12E	.	12g	.
.	.	12D	.	12a	.
.	.	3E	.	3g	.
.	12g	.	12ee	.	.
.	12f	.	12ff	.	.
.	[2g	.	[2ee	.	.
.	.	12D	.	12a	.
.	.	12C#	.	12b-	.
.	.	12D	.	12a	.
.	.	12C#	.	12b-	.
.	.	12BB	.	12cc	.
=7	=7	=7	=7	=7	=7
1r	3g]	12C#	3ee]	12b-	1r
.	.	12D	.	12a	.
.	.	12E	.	12g	.
.	.	3D	.	3a	.
.	12f	.	12ff	.	.
.	12e	.	12gg	.	.
.	8.f	.	8.ff	.	.
.	.	12E	.	12g	.
.	.	12F	.	12f	.
.	16dd	.	16a	.	.
.	8.cc	12E	8.b	12g	.
.	.	12F	.	12f	.
.	.	12G	.	12e	.
.	16b-	.	16cc#	.	.
=8	=8	=8	=8	=8	=8
2.r	[2a	8.F	[2dd	8.f	2.r
.	.	16D	.	16a	.
.	.	8.AA	.	8.dd	.
.	.	16D	.	16a	.
.	8.a]	8.F	8.dd]	8.f	.
.	16b-	16G	16cc#	16e	.
4dd	8.a	8.F	8.dd	8.f	4A
.	16g	16E	16ee	16g	.
=9	=9	=9	=9	=9	=9
4aa	4f	12D	4ff	12a	4D
.	.	12C#	.	12b-	.
.	.	12BB	.	12cc	.
3a	2r	12C#	2r	12b-	3d
.	.	12D	.	12a	.
.	.	12E	.	12g	.
.	.	4F	.	4f#	.
12b	.	.	.	.	12c
12cc	.	.	.	.	12B-
12b	4f	4GG#	4ff#	4ee-	12c
12cc	.	.	.	.	12B-
12dd	.	.	.	.	12A
=10	=10	=10	=10	=10	=10
12cc	12e	4AA	12gg	4dd	12B-
12dd	12f	.	12ff#	.	12A
12ee	12g	.	12ee	.	12G
3dd	12f	2r	12ff#	2r	3A
.	12e	.	12gg	.	.
.	12g	.	12ee	.	.
.	12f	.	12ff#	.	.
12ee	12e	.	12gg	.	12G
12ff	12d	.	12aa	.	12F#
12ee	12c#	[4A	12bb-	[4d	12G
12ff	12d	.	12aa	.	12F#
12gg	12e	.	12gg	.	12E
=11	=11	=11	=11	=11	=11
12ff	4d	4A]	4aa	4d]	12F#
12ee	.	.	.	.	12G
12dd	.	.	.	.	12A
3ee	2r	12G#	2r	12e-	3G
.	.	12A	.	12d	.
.	.	12F#	.	12f	.
.	.	2G#	.	2e-	.
12dd	.	.	.	.	12A
12cc	.	.	.	.	12B-
12dd	4f	.	4ff#	.	12A
12cc	.	.	.	.	12B-
12b	.	.	.	.	12c
=12	=12	=12	=12	=12	=12
8.cc	4e	[1A	4gg	[1d	8.B-
16ee	.	.	.	.	16G
8.aa	4c	.	4bb-	.	8.D
16ee	.	.	.	.	16G
8.cc	4e	.	4gg	.	8.B-
16b	.	.	.	.	16c
8.cc	8.a	.	8.dd	.	8.B-
16dd	16b	.	16cc	.	16A
=13	=13	=13	=13	=13	=13
2ee	4cc	8.A]	4b-	8.d]	2G
.	.	16E	.	16g	.
.	4a	8.C	4dd	8.b-	.
.	.	16E	.	16g	.
4r	4cc	8.A	4b-	8.d	4r
.	.	16B-	.	16c	.
4cc#	4ee	8.A	4g	8.d	4B-
.	.	16G	.	16e	.
=14	=14	=14	=14	=14	=14
4dd	4dd	8.F	4a	8.f	4A
.	.	16A	.	16c	.
8.ff	4d	8.d	4aa	8.A	8.F
16ee	.	16A	.	16c	16G
4dd	2r	8.F	2r	8.f	4A
.	.	16D	.	16a	.
4ccc	.	8.E	.	8.g	4BB
.	.	16F#	.	16f	.
=15	=15	=15	=15	=15	=15
4bb-	4r	8.G	4r	8.e	4C
.	.	16D	.	16a	.
4dd	4g	8.BB-	4ee	8.cc	4A
.	.	16D	.	16a	.
4r	4b-	8.G	4cc	8.e	4r
.	.	16A	.	16d	.
4b	4dd	8.G	4a	8.e	4c
.	.	16F	.	16f#	.
=16	=16	=16	=16	=16	=16
4cc	4cc	8.E	4b-	8.g	4B-
.	.	16G	.	16d	.
8.ee	4c	8.c	4bb-	8.B-	8.G
16dd	.	16G	.	16d	16A
4cc	2r	8.E	2r	8.g	4B-
.	.	16C	.	16b-	.
4bb-	.	8.D	.	8.a	4C#
.	.	16E	.	16g	.
=17	=17	=17	=17	=17	=17
4.aa	1r	8.F	1r	8.f	4.D
.	.	16G	.	16e	.
.	.	8.F	.	8.f	.
8gg	.	.	.	.	8E
.	.	16E	.	16g	.
8.ff	.	8.D	.	8.a	8.F
16ee	.	16E	.	16g	16G
8.dd	.	8.F	.	8.f	8.A
16ff	.	16D	.	16a	16F
=18	=18	=18	=18	=18	=18
4b-	1r	8.G	1r	8.e	4c
.	.	16A	.	16d	.
4bb-	.	8.G	.	8.e	4C
.	.	16F	.	16f	.
4gg	.	8.E	.	8.g	4E
.	.	16F	.	16f	.
4ee	.	8.G	.	8.e	4G
.	.	16E	.	16g	.
=19	=19	=19	=19	=19	=19
4.cc#	2.r	8.A	2.r	8.d	4.B-
.	.	16B-	.	16c#	.
.	.	8.A	.	8.d	.
16dd	.	.	.	.	16A
16ee	.	16G	.	16e	16G
8.a	.	8.F	.	8.f	8.d
16ee	.	16E	.	16g	16G
8.ff	4d	8.D	4aa	8.a	8.F
16gg	.	16E	.	16g	16E
=20	=20	=20	=20	=20	=20
4.aa	4A	8.F	4ddd	8.f	4.D
.	.	16E	.	16g	.
.	3a	8.F	3dd	8.f	.
8gg	.	.	.	.	8E
.	.	16G	.	16e	.
12ff	.	4A	.	4d	12F
12ee	12g	.	12ee	.	12G
12dd	12f	.	12ff	.	12A
8.ee	12g	4C#	12ee	4b-	8.G
.	12f	.	12ff	.	.
.	12e	.	12gg	.	.
16bb-	.	.	.	.	16C#
=21	=21	=21	=21	=21	=21
12aa	12f	4D	12ff	4a	12D
12gg	12e	.	12gg	.	12E
12ff	12d	.	12aa	.	12F
12gg	3e	4B-	3gg	4c#	12E
12cc#	.	.	.	.	12B-
12ee	.	.	.	.	12G
12gg	.	4r	.	4r	12E
12ff	12d	.	12aa	.	12F#
[4ee	12c#	.	12bb-	.	[4G
.	12d	4G#	12aa	4e-	.
.	12c#	.	12bb-	.	.
48ee]	12B	.	12ccc	.	48G]
16ff	.	.	.	.	16F#
=22	=22	=22	=22	=22	=22
12ee	12c#	4A	12bb-	4d	12G
12ff	12d	.	12aa	.	12F
12gg	12e	.	12gg	.	12E
12ff	3d	2r	3aa	2r	12F
12dd	.	.	.	.	12A
12a	.	.	.	.	12d
12b	.	.	.	.	12c
12cc#	12e	.	12gg	.	12B-
12dd	12f	.	12ff	.	12A
12cc#	12e	4A	12gg	4d	12B-
12dd	12f	.	12ff	.	12A
12ee	12g	.	12ee	.	12G
=23	=23	=23	=23	=23	=23
4dd	8.f	4D	8.ff	4a	4A
.	16d	.	16aa	.	.
4ff	8.A	2r	8.ddd	2r	4F
.	16d	.	16aa	.	.
4dd	8.f	.	8.ff	.	4A
.	16g	.	16ee	.	.
4a	8.f	4D	8.ff#	4a	4d
.	16e	.	16gg#	.	.
=24	=24	=24	=24	=24	=24
8.b-	4d	4G	4aa	4e	8.c
16dd	.	.	.	.	16A
8.gg	8.e	2r	8.gg	2r	8.E
16dd	16f#	.	16ff	.	16A
8.b-	4g	.	4ee	.	8.c
16g	.	.	.	.	16e
8.a	4f	4D	4ff#	4a	8.d
16b	.	.	.	.	16c
=25	=25	=25	=25	=25	=25
4cc	8.e-	4C	8.gg	4b	4B
.	16c	.	16bb	.	.
4ee-	8.G	2r	8.eee	2r	4G
.	16c	.	16bb	.	.
4cc	8.e-	.	8.gg	.	4B
.	16f	.	16ff#	.	.
4g	8.e-	4C	8.gg	4b	4e
.	16d	.	16aa	.	.
=26	=26	=26	=26	=26	=26
8.a	4c	4F	4bb	4f#	8.d
16cc	.	.	.	.	16B
8.ff	8.d	2r	8.aa	2r	8.F#
16cc	16e	.	16gg	.	16B
8.a	4f	.	4ff#	.	8.d
16f	.	.	.	.	16f
8.g	4e-	4C	4gg#	4b	8.e
16a	.	.	.	.	16d
=27	=27	=27	=27	=27	=27
4b-	8.d	4G	8.aa	4e	4c
.	16c	.	16bb	.	.
3bb-	8.B-	2.r	8.ccc	2.r	3C
.	16c	.	16bb-	.	.
.	8.d	.	8.aa	.	.
12aa-	.	.	.	.	12D
12gg	.	.	.	.	12E
.	16e-	.	16gg	.	.
12aa-	8.f	.	8.ff	.	12D
12gg	.	.	.	.	12E
12ff	.	.	.	.	12F
.	16d	.	16aa	.	.
=28	=28	=28	=28	=28	=28
12gg	3e-	2.r	3gg	2.r	12E
12ff	.	.	.	.	12F
12ee-	.	.	.	.	12G
3ff	.	.	.	.	3F
.	12d	.	12aa	.	.
.	12c	.	12bb-	.	.
.	12d	.	12aa	.	.
12ee-	12c	.	12bb-	.	12G
12dd	12B-	.	12ccc	.	12A
12ee-	12c	4F	12bb-	4f	12G
12dd	12B-	.	12ccc	.	12A
12cc	12A	.	12ddd	.	12B-
=29	=29	=29	=29	=29	=29
4dd	12B-	4B-	12ccc	4c	4A
.	12b-	.	12cc	.	.
.	12cc	.	12b-	.	.
4ff	12dd	3BB-	12a	3cc	4F
.	12cc	.	12b-	.	.
.	12b-	.	12cc	.	.
4dd	[2f	.	[2ff	.	4A
.	.	12C	.	12b-	.
.	.	12D	.	12a	.
4a	.	12C	.	12b-	4d
.	.	12D	.	12a	.
.	.	12E-	.	12g	.
=30	=30	=30	=30	=30	=30
[1b-	12f]	12D	12ff]	12a	[1c
.	12g	12E-	12ee	12g	.
.	12a-	12F	12dd	12f	.
.	12g	3E-	12ee	3g	.
.	12f	.	12ff	.	.
.	12a-	.	12dd	.	.
.	4g	.	4ee	.	.
.	.	12F	.	12f	.
.	.	12G	.	12e	.
.	4d	12F	4aa	12f	.
.	.	12G	.	12e	.
.	.	12A-	.	12d	.
=31	=31	=31	=31	=31	=31
1b-_	12e-	12G	12gg	12e	1c_
.	12d	12F	12aa	12f	.
.	12c	12E-	12bb-	12g	.
.	12d	3F	12aa	3f	.
.	12e-	.	12gg	.	.
.	12c	.	12bb-	.	.
.	4d	.	4aa	.	.
.	.	12E-	.	12g	.
.	.	12D	.	12a	.
.	4g	12E-	4ee	12g	.
.	.	12D	.	12a	.
.	.	12C	.	12b-	.
=32	=32	=32	=32	=32	=32
2b-]	12f	8.D	12ff	8.a	2c]
.	12B-	.	12ccc	.	.
.	12d	.	12aa	.	.
.	.	16F	.	16f	.
.	12f	8.B-	12ff	8.c	.
.	12d	.	12aa	.	.
.	12f	.	12ff	.	.
.	.	16F	.	16f	.
4r	8.b-	8.D	8.cc	8.a	4r
.	16e	16C	16gg	16b-	.
4b-	8.f	8.D	8.ff	8.a	4c
.	16g	16E	16ee-	16g	.
=33	=33	=33	=33	=33	=33
4f	12a	4F	12dd	4f	4f
.	12b-	.	12cc	.	.
.	12cc	.	12b-	.	.
3ff	12b-	4D	12cc	4a	3F
.	12cc	.	12b-	.	.
.	12dd	.	12a	.	.
.	[2f	8.AA	[2ff	8.dd	.
12ee-	.	.	.	.	12G
12dd	.	.	.	.	12A
.	.	16BB-	.	16cc	.
12ee-	.	8.C	.	8.b-	12G
12dd	.	.	.	.	12A
12cc	.	.	.	.	12B-
.	.	16AA	.	16dd	.
=34	=34	=34	=34	=34	=34
12dd	1f_	3BB-	1ff_	3cc	12A
12cc	.	.	.	.	12B-
12b-	.	.	.	.	12c
3cc	.	.	.	.	3B-
.	.	12AA	.	12dd	.
.	.	12GG	.	12ee-	.
.	.	12AA	.	12dd	.
12b-	.	12BB-	.	12cc	12c
12a	.	12C	.	12b-	12d
12b-	.	12D	.	12a	12c
12a	.	12C	.	12b-	12d
12g	.	12BB-	.	12cc	12e-
=35	=35	=35	=35	=35	=35
12a	1f_	12C	1ff_	12b-	12d
12b-	.	12D	.	12a	12c
12cc	.	12E-	.	12g	12B-
3b-	.	12D	.	12a	3c
.	.	12E-	.	12g	.
.	.	12C	.	12b-	.
.	.	12D	.	12a	.
12cc	.	12C	.	12b-	12B-
12dd	.	12BB-	.	12cc	12A
12cc	.	12AA	.	12dd	12B-
12dd	.	12BB-	.	12cc	12A
12ee-	.	12C	.	12b-	12G
=36	=36	=36	=36	=36	=36
8.dd	2f]	4BB-	2ff]	4cc	8.A
16b-	.	.	.	.	16c
8.f	.	4D	.	4a	8.f
16b-	.	.	.	.	16c
8.dd	4r	4F	4r	4f	8.A
16ee-	.	.	.	.	16G
8.dd	4d	4BB-	4aa	4cc	8.A
16cc	.	.	.	.	16B
=37	=37	=37	=37	=37	=37
12b-	4g	4E-	4ee	4g	12c
12g	.	.	.	.	12e
12a	.	.	.	.	12d
12b-	3G	4r	3eee	4r	12c
12cc	.	.	.	.	12B
12dd	.	.	.	.	12A
8.ee-	.	4C	.	4b	8.G#
.	12A	.	12ddd	.	.
.	12B-	.	12ccc	.	.
16dd	.	.	.	.	16A
8.cc	12A	4r	12ddd	4r	8.B
.	12B-	.	12ccc	.	.
.	12c	.	12bb	.	.
16ee-	.	.	.	.	16G#
=38	=38	=38	=38	=38	=38
12dd	12B-	[1G	12ccc	[1e	12A
12ee-	12c	.	12bb	.	12G#
12ff	12d	.	12aa	.	12F#
12ee-	3c	.	3bb	.	12G#
12gg	.	.	.	.	12E
12ee-	.	.	.	.	12G#
12cc	.	.	.	.	12B
12b	12d	.	12aa	.	12c
12a	12e-	.	12gg#	.	12d
12b	12d	.	12aa	.	12c
12cc	12e-	.	12gg#	.	12B
12dd	12f	.	12ff#	.	12A
=39	=39	=39	=39	=39	=39
12cc	12e-	1G_	12gg#	1e_	12B
12b-	12d	.	12aa	.	12c
12a	12c	.	12bb	.	12d
12b-	3d	.	3aa	.	12c
12g	.	.	.	.	12e
12a	.	.	.	.	12d
12b-	.	.	.	.	12c
12cc	12c	.	12bb	.	12B
12dd	12B-	.	12ccc	.	12A
12ee-	12c	.	12bb	.	12G#
12dd	12B-	.	12ccc	.	12A
12cc	12A	.	12ddd	.	12B
=40	=40	=40	=40	=40	=40
12dd	8.B-	1G_	8.ccc	1e_	12A
12g	.	.	.	.	12e
12b-	.	.	.	.	12c
.	16d	.	16aa	.	.
12dd	8.g	.	8.ee	.	12A
12b-	.	.	.	.	12c
12dd	.	.	.	.	12A
.	16d	.	16aa	.	.
8.gg	8.B-	.	8.ccc	.	8.E
16ff#	16A	.	16ddd	.	16F
8.gg	8.B-	.	8.ccc	.	8.E
16aa	16c	.	16bb	.	16D
=41	=41	=41	=41	=41	=41
8.bb-	4d	2G]	4aa	2e]	8.C
16gg	.	.	.	.	16E
8.dd	4B-	.	4ccc	.	8.A
16gg	.	.	.	.	16E
8.bb-	4d	4r	4aa	4r	8.C
16ccc	.	.	.	.	16BB
8.bb-	8.g	4G	8.ee	4e	8.C
16aa	16f	.	16ff	.	16D
=42	=42	=42	=42	=42	=42
4gg	8.e	2c	8.gg	2B	4E
.	16g	.	16ee	.	.
4ee	8.cc	.	8.b	.	4G
.	16g	.	16ee	.	.
4gg	8.e	4r	8.gg	4r	4E
.	16c	.	16bb-	.	.
4bb-	8.d	4G	8.aa	4e	4C#
.	16e	.	16gg	.	.
=43	=43	=43	=43	=43	=43
8.aa	4f	2F	4ff	2f	8.D
16ff	.	.	.	.	16F
8.cc	4A	.	4ddd	.	8.B-
16ff	.	.	.	.	16F
8.aa	4c	4r	4bb-	4r	8.D
16bb-	.	.	.	.	16C
8.aa	8.f	4F	8.ff	4f	8.D
16gg	16e	.	16gg	.	16E
=44	=44	=44	=44	=44	=44
4ff	8.d	2B-	8.aa	2c	4F
.	16f	.	16ff	.	.
4dd	8.b-	.	8.cc	.	4A
.	16f	.	16ff	.	.
4ff	8.d	4r	8.aa	4r	4F
.	16e	.	16gg	.	.
4aa	8.c#	4F	8.bb-	4f	4D
.	16d	.	16aa	.	.
=45	=45	=45	=45	=45	=45
4gg	2e	8.E	2gg	8.g	4E
.	.	16G	.	16e	.
4dd	.	8.B-	.	8.c#	4A
.	.	16G	.	16e	.
4cc#	4r	8.E	4r	8.g	4B-
.	.	16F	.	16f	.
4r	4b-	8.E	4cc#	8.g	4r
.	.	16D	.	16a	.
=46	=46	=46	=46	=46	=46
8r	4a	8C#	4dd	8b-	8r
16cc#	.	8E	.	8g	16B-
16dd	.	.	.	.	16A
16ee	4..r	8G	4..r	8e	16G
16ff	.	.	.	.	16F
16gg	.	8E	.	8g	16E
16aa	.	.	.	.	16D
4bb-	.	8.C#	.	8.b-	4C#
.	16ff	16D	16f	16a	.
4r	12ee	8.C#	12g	8.b	4r
.	12ff	.	12f	.	.
.	12gg	.	12e	.	.
.	.	16BB	.	16cc#	.
=47	=47	=47	=47	=47	=47
12r	4cc#	8.AA	4b-	8.dd	12r
12ee	.	.	.	.	12G
12aa	.	.	.	.	12D
.	.	16C#	.	16b-	.
12gg	2r	8.E	2r	8.g	12E
12ff	.	.	.	.	12F
12ee	.	.	.	.	12G
.	.	16C#	.	16b-	.
12ff	.	8.AA	.	8.dd	12F
12ee	.	.	.	.	12G
12dd	.	.	.	.	12A
.	.	16BB-	.	16cc#	.
12cc#	4e	8.AA	4gg	8.dd	12B-
12dd	.	.	.	.	12A
12ee	.	.	.	.	12G
.	.	16GG	.	16ee	.
=48	=48	=48	=48	=48	=48
4ff	4A	12FF	4ddd	12ff	4F
.	.	12AA	.	12dd	.
.	.	12D	.	12a	.
2r	3a	12F	3dd	12f	2r
.	.	12E	.	12g	.
.	.	12D	.	12a	.
.	.	4.C#	.	2b-	.
.	12g	.	12ee	.	.
.	12f	.	12ff	.	.
4b-	12g	.	12ee	.	4c#
.	12f	.	12ff	.	.
.	.	16BB	.	.	.
.	12e	.	12gg	.	.
.	.	16C#	.	.	.
=49	=49	=49	=49	=49	=49
12a	12f	4D	12ff	4a	12d
12g	12e	.	12gg	.	12e
12f	12d	.	12aa	.	12f
12g	3e	4B-	3gg	4c#	12e
12a	.	.	.	.	12d
12f	.	.	.	.	12f
16g	.	4r	.	4r	16e
16f	.	.	.	.	16f#
.	12d	.	12aa	.	.
4e	.	.	.	.	4g
.	12c#	.	12bb-	.	.
.	12d	4G#	12aa	4e-	.
.	12c#	.	12bb-	.	.
8f	.	.	.	.	8f#
.	12B	.	12ccc	.	.
=50	=50	=50	=50	=50	=50
4e	12c#	8.A	12bb-	8.d	4g
.	12d	.	12aa	.	.
.	12e	.	12gg	.	.
.	.	16G	.	16e	.
2r	3d	12F	3aa	12f	2r
.	.	12G	.	12e	.
.	.	12A	.	12d	.
.	.	8.B-	.	8.c#	.
.	12e	.	12gg	.	.
.	12f	.	12ff	.	.
.	.	16D	.	16a	.
4ee	12e	12C#	12gg	12b-	4G
.	12f	12D	12ff	12a	.
.	12g	12E	12ee	12g	.
=51	=51	=51	=51	=51	=51
4a	8.f	4D	8.ff	4a	4d
.	16d	.	16aa	.	.
2r	8.A	4F	8.ddd	4f	2r
.	16d	.	16aa	.	.
.	8.f	4A	8.ff	4d	.
.	16g	.	16ee	.	.
4a	8.f	4D	8.ff#	4a	4d
.	16e	.	16gg#	.	.
=52	=52	=52	=52	=52	=52
8.b-	4d	4G	4aa	4e	8.c
16dd	.	.	.	.	16A
8.gg	4b-	2r	4cc	2r	8.E
16dd	.	.	.	.	16A
8.b-	4g	.	4ee	.	8.c
16g	.	.	.	.	16e
8.a	4d	4G	4aa	4e	8.d
16b-	.	.	.	.	16c
=53	=53	=53	=53	=53	=53
4e	8.g	4GG	8.ee	4ee	4g
.	16e	.	16gg	.	.
2r	8.B	4G	8.ccc	4e	2r
.	16e	.	16gg	.	.
.	8.g	4B	8.ee	4c	.
.	16a	.	16dd	.	.
4b	8.g	4E	8.ee	4g	4c
.	16f	.	16ff#	.	.
=54	=54	=54	=54	=54	=54
8.cc	4e	4A	4gg	4d	8.B-
16ee	.	.	.	.	16G
8.aa	4cc	2r	4b-	2r	8.D
16ee	.	.	.	.	16G
8.cc	4a	.	4dd	.	8.B-
16a	.	.	.	.	16d
8.b-	4e	4A	4gg	4d	8.c
16cc	.	.	.	.	16B-
=55	=55	=55	=55	=55	=55
4f	8.a	4AA	8.dd	4dd	4f
.	16f	.	16ff	.	.
2r	8.c	4A	8.bb-	4d	2r
.	16f	.	16ff	.	.
.	8.a	4c	8.dd	4B-	.
.	16b-	.	16cc	.	.
4cc	8.a	4F	8.dd	4f	4B-
.	16g	.	16ee	.	.
=56	=56	=56	=56	=56	=56
8.dd	2f	4B-	2ff	4c	8.A
16ff	.	.	.	.	16F
8.bb-	.	4d	.	4A	8.C
16ff	.	.	.	.	16F
8.dd	4r	4B-	4r	4c	8.A
16b-	.	.	.	.	16c
8.cc	4a	4F#	4dd	4f	8.B-
16dd	.	.	.	.	16A
=57	=57	=57	=57	=57	=57
4g	8.b-	4G	8.cc#	4e	4e
.	16g	.	16ee	.	.
2r	8.d	4B-	8.aa	4c#	2r
.	16g	.	16ee	.	.
.	8.b-	4G	8.cc#	4e	.
.	16cc	.	16b	.	.
4dd	8.b-	4D	8.cc#	4a	4A
.	16a	.	16dd	.	.
=58	=58	=58	=58	=58	=58
4cc#	4g	8.E	4ee	8.g	4B-
.	.	16G	.	16e	.
4..r	4..r	8.B-	4..r	8.c#	4..r
.	.	16G	.	16e	.
.	.	8.E	.	8.g	.
16gg	16e	16C#	16gg	16b-	16E
8.ff	8.f	8.D	8.ff	8.a	8.F
16ee	16g	16E	16ee	16g	16G
=59	=59	=59	=59	=59	=59
2bb-	2c#	2GG	2bb-	2ee	2C#
3r	4r	4r	4r	4r	3r
.	4e	4G	4gg	4e	.
12bb-	.	.	.	.	12C#
12cc#	.	.	.	.	12B-
=60	=60	=60	=60	=60	=60
3dd	12f	12F	12ff	12f	3A
.	12g	12E	12ee	12g	.
.	12a	12D	12dd	12a	.
.	12b-	3G	12cc#	3e	.
12ee	12g	.	12ee	.	12G
12ff	12a	.	12dd	.	12F#
3ee	12b	.	12cc	.	3G
.	12a	12F	12dd	12f#	.
.	12b	12E	12cc	12g	.
.	12cc#	4A	12b-	4d	.
12dd	12b	.	12cc	.	12A
12ee	12cc#	.	12b-	.	12G
=61	=61	=61	=61	=61	=61
3ff	12dd	4D	12a	4a	3F
.	12f	.	12ff	.	.
.	12g	.	12ee	.	.
.	12a	2r	12dd	2r	.
12gg	12g	.	12ee	.	12E
12aa	12f	.	12ff	.	12D
3gg	12e	.	12gg	.	3E
.	12g	.	12ee	.	.
.	12a	.	12dd	.	.
.	12b-	4G	12cc#	4e	.
12ff	12a	.	12dd	.	12F
12gg	12g	.	12ee	.	12E
=62	=62	=62	=62	=62	=62
[1aa	12f	4d	12ff	4A	[1D
.	12d	.	12aa	.	.
.	12f	.	12ff	.	.
.	12a	3D	12dd	3a	.
.	12f	.	12ff	.	.
.	12a	.	12dd	.	.
.	12dd	.	12a	.	.
.	12cc#	12E	12b-	12g	.
.	12b	12F	12cc	12f	.
.	12cc#	12E	12b-	12g	.
.	12dd	12F	12a	12f	.
.	12ee	12G	12g	12e	.
=63	=63	=63	=63	=63	=63
12aa]	[1dd	12F	[1a	12f	12D]
12bb-	.	12G	.	12e	12C#
12ccc	.	12A	.	12d	12BB
12bb-	.	3G	.	3e	12C#
12gg	.	.	.	.	12E
12dd	.	.	.	.	12A
12ee	.	.	.	.	12G
12ff#	.	12A	.	12d	12F
12gg	.	12B-	.	12c#	12E
12ff#	.	12A	.	12d	12F
12gg	.	12B-	.	12c#	12E
12aa	.	12c	.	12B	12D
=64	=64	=64	=64	=64	=64
12gg	3dd]	12B-	3a]	12c#	12E
12ff	.	12A	.	12d	12F
12ee	.	12G	.	12e	12G
12ff	.	3A	.	3d	12F#
12ee	12cc#	.	12b-	.	12G
12dd	12b	.	12cc	.	12A
4ee	4cc#	.	4b-	.	4G
.	.	12G	.	12e	.
.	.	12F	.	12f	.
4r	4r	12G	4r	12e	4r
.	.	12F	.	12f	.
.	.	12E	.	12g	.
=65	=65	=65	=65	=65	=65
2.r	12r	8.F	12r	8.f	2.r
.	12dd	.	12a	.	.
.	12a	.	12dd	.	.
.	.	16A	.	16d	.
.	12f	8.d	12ff	8.A	.
.	12a	.	12dd	.	.
.	12f	.	12ff	.	.
.	.	16A	.	16d	.
.	12d	8.F	12aa	8.f	.
.	12f	.	12ff	.	.
.	12a	.	12dd	.	.
.	.	16E	.	16g	.
4dd	12dd	8.F	12a	8.f	4A
.	12cc#	.	12b-	.	.
.	12b	.	12cc	.	.
.	.	16G	.	16e	.
=66	=66	=66	=66	=66	=66
4a	12cc#	[1A	12b-	[1d	4d
.	12a	.	12dd	.	.
.	12e	.	12gg	.	.
3aa	12c#	.	12bb-	.	3D
.	12d	.	12aa	.	.
.	12e	.	12gg	.	.
.	12f	.	12ff#	.	.
12gg	12e	.	12gg	.	12E
12ff	12d	.	12aa	.	12F#
12gg	8.e	.	8.gg	.	12E
12ff	.	.	.	.	12F#
12ee	.	.	.	.	12G
.	16cc#	.	16b-	.	.
=67	=67	=67	=67	=67	=67
12ff	3dd	1A_	3a	1d_	12F#
12ee	.	.	.	.	12G
12dd	.	.	.	.	12A
3ee	.	.	.	.	3G
.	12cc#	.	12b-	.	.
.	12b	.	12cc	.	.
.	12cc#	.	12b-	.	.
12dd	12dd	.	12a	.	12A
12cc#	12ee	.	12g	.	12B-
12dd	12ff	.	12f#	.	12A
12cc#	12ee	.	12g	.	12B-
12b	12dd	.	12a	.	12c
=68	=68	=68	=68	=68	=68
12cc#	8.ee	4A]	8.g	4d]	12B-
12dd	.	.	.	.	12A
12ee	.	.	.	.	12G
.	16g	.	16ee	.	.
3dd	12f	4B-	12ff	4c#	3A
.	12e	.	12gg	.	.
.	12d	.	12aa	.	.
.	2b-	4G	2cc#	4e	.
12ee	.	.	.	.	12G
12ff	.	.	.	.	12F
12ee	.	4C#	.	4b-	12G
12ff	.	.	.	.	12F
12gg	.	.	.	.	12E
=69	=69	=69	=69	=69	=69
8.ff	4a	12D	4dd	12a	8.F
.	.	12AA	.	12dd	.
.	.	12D	.	12a	.
16dd	.	.	.	.	16A
8.a	4..r	12F	4..r	12f	8.d
.	.	12D	.	12a	.
.	.	12F	.	12f	.
16dd	.	.	.	.	16A
8.ff	.	4A	.	4d	8.F
16gg	16b-	.	16cc#	.	16E
8.ff	8.a	4AA	8.dd	4dd	8.F#
16ee	16g	.	16ee	.	16G
=70	=70	=70	=70	=70	=70
12dd	12f	3D	12ff#	3a	12A
12cc	12e	.	12gg	.	12B-
12b-	12d	.	12aa	.	12c
3cc	2a	.	2dd	.	3B-
.	.	12F#	.	12f#	.
.	.	12G	.	12e	.
.	.	12A	.	12d	.
12b-	.	12B-	.	12c	12c
12a	.	12c	.	12B-	12d
12b-	12g	8.d	12ee	8.A	12c#
12cc	12a	.	12dd	.	12B
12dd	12b-	.	12cc#	.	12A
.	.	16D	.	16a	.
=71	=71	=71	=71	=71	=71
2.a	2.f#	2.D	2.ff#	2.a	2.d
4r	4r	4r	4r	4r	4r
==	==	==	==	==	==
*-	*-	*-	*-	*-	*-
!!!RWG1: This file contains only pitch and duration data.
!!!RWG2: Transposing instruments are not transposed.
!!!RWG3: Spines may have incompatible meters.
!!!RWG4: Durations of rests and tied notes may be interpreted.
!!!RWG: Key is interpreted using the Humdrum key tool.
!!!AFT: stage1
!!!END: 1997/04/15/
!!format changes:
!!content changes:
!!public access: complete
!!!KEY: 3499588558
!!!EMD: Converted from MuseData to Humdrum Dec 19, 2000, by Andreas Kornstaedt using muse2kern.
